Yaru++/mimetypes/scalable/application-x-karbon.svg

<svg height="256" viewBox="0 0 67.73 67.73" width="256" xmlns="http://www.w3.org/2000/svg" xmlns:xlink="http://www.w3.org/1999/xlink"><linearGradient id="a" gradientTransform="matrix(-.11988342 0 0 -.11987999 63.186066 64.761749)" gradientUnits="userSpaceOnUse" x1="529.65515" x2="-35.310345" y1="401.58368" y2="119.09284"><stop offset="0" stop-color="#f2f2f2"/><stop offset="1" stop-color="#f9f9f9"/></linearGradient><linearGradient id="b" gradientUnits="userSpaceOnUse" x1="88" x2="488" y1="88" y2="488"><stop offset="0" stop-opacity=".588235"/><stop offset=".88" stop-opacity="0"/><stop offset="1"/></linearGradient><filter id="c" color-interpolation-filters="sRGB" height="1.087725" width="1.105998" x="-.052999" y="-.043863"><feGaussianBlur stdDeviation="8.4801079"/></filter><filter id="d" color-interpolation-filters="sRGB" height="1.021931" width="1.0265" x="-.01325" y="-.010966"><feGaussianBlur stdDeviation="2.120027"/></filter><path d="m189.84323 74c-70.59344 0-78.18921 7.250835-77.84323 77.98706v146.01294 146.01294c-.34598 70.73623 7.24979 77.98706 77.84323 77.98706h228.31354c70.59344 0 75.90613-7.27652 77.84323-77.98706v-146.01294-146.01294c0-70.737067-7.24979-77.98706-77.84323-77.98706z" filter="url(#d)" opacity=".1" transform="matrix(0 -.13228516 .13228516 0 -5.866787 74.031658)"/><path d="m189.84323 74c-70.59344 0-78.18921 7.250835-77.84323 77.98706v146.01294 146.01294c-.34598 70.73623 7.24979 77.98706 77.84323 77.98706h228.31354c70.59344 0 77.84323-7.24999 77.84323-77.98706v-146.01294-146.01294c0-70.737067-7.24979-77.98706-77.84323-77.98706z" fill="url(#b)" filter="url(#c)" opacity=".3" transform="matrix(0 .13228516 .13228516 0 -5.866787 -6.39629)"/><path d="m3.9223151 48.653645c0 9.338467.9591779 10.343274 10.3165309 10.297506h19.315345 19.315345c9.357354.04577 10.31653-.959039 10.31653-10.297506v-30.202488c0-9.3384631-.962575-10.5537541-10.31653-10.2975041h-19.315345-19.315345c-9.3574644 0-10.3165309.959041-10.3165309 10.2975041z" fill="none" opacity=".2" stroke="#000" stroke-width="1.058281"/><path d="m3.9223145 48.653645c0 9.338467.9591785 10.343274 10.3165315 10.297506h19.315345 19.315345c9.357354.04577 10.31653-.959039 10.31653-10.297506v-30.202488c0-9.3384631-.959067-10.2975041-10.31653-10.2975041h-19.315345-19.315345c-9.3574641 0-10.3165315.959041-10.3165315 10.2975041z" fill="url(#a)"/><path d="m3.9225122 48.126185v.52914c0 9.338465.9587112 10.297056 10.3161758 10.297056h19.315702 19.315183c9.357463 0 10.316692-.958591 10.316692-10.297056v-.52914c0 9.338464-.959229 10.297055-10.316692 10.297055h-19.315183-19.315702c-9.3574646 0-10.3161758-.958591-10.3161758-10.297055z" opacity=".2"/><path d="m14.238688 8.1548829c-9.3573553-.045768-10.3161758.959105-10.3161758 10.2975731v.529141c0-9.3384681.9588205-10.3433421 10.3161758-10.2975741h19.315702 19.315183c9.357352-.04577 10.316692.959106 10.316692 10.2975741v-.529141c0-9.3384681-.95934-10.3433411-10.316692-10.2975731h-19.315183z" fill="#fff" opacity=".2"/><path d="m35.788419 29.947145c0 2.44635-3.914162 4.892702-3.914162 7.828324 0 3.424892 3.914162 4.892704 16.145919 4.892704v1.95708c-12.231757 0-17.124456-2.44635-17.124456-6.849784 0-3.424892 3.914159-5.871242 3.914159-7.828324 0-1.46781-1.467812-9.785406-16.145924-9.785406 14.678112 0 17.124464 7.339056 17.124464 9.785406z" stroke="#000" stroke-width=".546973"/><g fill="#fff"><g stroke="#1c399e"><path d="m53.237876 43.646713c0 2.881652-2.33604 5.217702-5.2177 5.217702-2.881655 0-5.217699-2.33605-5.217699-5.217702 0-2.881655 2.336044-5.2177 5.217699-5.2177 2.88166 0 5.2177 2.336045 5.2177 5.2177z" stroke-width=".757994"/><path d="m34.284085 37.7344c0 1.572304-1.297971 2.846912-2.899101 2.846912-1.601126 0-2.899095-1.274608-2.899095-2.846912 0-1.57231 1.297969-2.846917 2.899095-2.846917 1.60113 0 2.899101 1.274607 2.899101 2.846917z" stroke-width=".579105"/><path d="m37.553015 28.16642c0 1.517964-1.230551 2.748515-2.748512 2.748515-1.517964 0-2.748515-1.230551-2.748515-2.748515 0-1.517965 1.230551-2.748513 2.748515-2.748513 1.517961 0 2.748512 1.230548 2.748512 2.748513z" stroke-width=".687129"/><ellipse cx="19.36125" cy="20.261984" rx="2.409984" ry="2.405109" stroke-width=".661426"/></g><path d="m3.9223145 33.553829h59.2637515v15.101176c0 9.338465-.962123 10.054627-10.316435 10.297574h-19.31544-19.315442c-9.3574647 0-10.3164345-.959109-10.3164345-10.297574z" opacity=".1"/><path d="m33.554191 8.1550799h19.31544c9.357355-.04577 10.316435.959109 10.316435 10.2975751v30.20235c0 9.338465-.962123 10.054627-10.316435 10.297574h-19.31544z" opacity=".1"/><path d="m47.311847 58.580657 15.874219-15.874219v5.948567c-.01384 8.994282-1.006076 9.925652-10.099733 9.925652z" opacity=".1"/></g></svg>

<?xml version="1.0" encoding="UTF-8" standalone="no"?>
<svg
   xmlns:dc="http://purl.org/dc/elements/1.1/"
   xmlns:cc="http://creativecommons.org/ns#"
   xmlns:rdf="http://www.w3.org/1999/02/22-rdf-syntax-ns#"
   xmlns:svg="http://www.w3.org/2000/svg"
   xmlns="http://www.w3.org/2000/svg"
   xmlns:xlink="http://www.w3.org/1999/xlink"
   xmlns:sodipodi="http://sodipodi.sourceforge.net/DTD/sodipodi-0.dtd"
   xmlns:inkscape="http://www.inkscape.org/namespaces/inkscape"
   height="256"
   viewBox="0 0 67.73 67.73"
   width="256"
   version="1.1"
   id="svg62"
   sodipodi:docname="application-x-karbon.svg"
   inkscape:version="0.92.5 (2060ec1f9f, 2020-04-08)">
  <metadata
     id="metadata68">
    <rdf:RDF>
      <cc:Work
         rdf:about="">
        <dc:format>image/svg+xml</dc:format>
        <dc:type
           rdf:resource="http://purl.org/dc/dcmitype/StillImage" />
      </cc:Work>
    </rdf:RDF>
  </metadata>
  <defs
     id="defs66">
    <linearGradient
       gradientUnits="userSpaceOnUse"
       y2="119.09284"
       x2="-35.310345"
       y1="401.58368"
       x1="529.65515"
       id="linearGradient4226"
       xlink:href="#linearGradient4338"
       inkscape:collect="always"
       gradientTransform="matrix(-0.11988342,0,0,-0.11987999,63.186066,64.761749)" />
    <linearGradient
       inkscape:collect="always"
       id="linearGradient4338">
      <stop
         style="stop-color:#f2f2f2;stop-opacity:1"
         offset="0"
         id="stop4340" />
      <stop
         style="stop-color:#f9f9f9;stop-opacity:1"
         offset="1"
         id="stop4342" />
    </linearGradient>
    <linearGradient
       inkscape:collect="always"
       xlink:href="#linearGradient4360"
       id="linearGradient4358"
       x1="88"
       y1="88"
       x2="488"
       y2="488"
       gradientUnits="userSpaceOnUse" />
    <linearGradient
       id="linearGradient4360"
       inkscape:collect="always">
      <stop
         id="stop4362"
         offset="0"
         style="stop-color:#000000;stop-opacity:0.58823532" />
      <stop
         style="stop-color:#000000;stop-opacity:0"
         offset="0.88"
         id="stop4364" />
      <stop
         id="stop4366"
         offset="1"
         style="stop-color:#000000;stop-opacity:1" />
    </linearGradient>
    <filter
       inkscape:collect="always"
       style="color-interpolation-filters:sRGB"
       id="filter4380"
       x="-0.052999184"
       width="1.1059984"
       y="-0.043862626"
       height="1.0877253">
      <feGaussianBlur
         inkscape:collect="always"
         stdDeviation="8.4801079"
         id="feGaussianBlur4382" />
    </filter>
    <filter
       inkscape:collect="always"
       style="color-interpolation-filters:sRGB"
       id="filter4346"
       x="-0.013249796"
       width="1.0264996"
       y="-0.010965657"
       height="1.0219313">
      <feGaussianBlur
         inkscape:collect="always"
         stdDeviation="2.120027"
         id="feGaussianBlur4348" />
    </filter>
  </defs>
  <sodipodi:namedview
     pagecolor="#ffffff"
     bordercolor="#666666"
     borderopacity="1"
     objecttolerance="10"
     gridtolerance="10"
     guidetolerance="10"
     inkscape:pageopacity="0"
     inkscape:pageshadow="2"
     inkscape:window-width="773"
     inkscape:window-height="480"
     id="namedview64"
     showgrid="false"
     inkscape:zoom="0.921875"
     inkscape:cx="128"
     inkscape:cy="128"
     inkscape:window-x="0"
     inkscape:window-y="27"
     inkscape:window-maximized="0"
     inkscape:current-layer="svg62" />
  <linearGradient
     id="a"
     gradientTransform="matrix(0 -.11988342 .11987999 0 .362762 292.80976)"
     gradientUnits="userSpaceOnUse"
     x1="529.65515"
     x2="-35.310345"
     y1="401.58368"
     y2="119.09284">
    <stop
       offset="0"
       stop-color="#f2f2f2"
       id="stop2" />
    <stop
       offset="1"
       stop-color="#f9f9f9"
       id="stop4" />
  </linearGradient>
  <linearGradient
     id="b"
     gradientUnits="userSpaceOnUse"
     x1="88"
     x2="488"
     y1="88"
     y2="488">
    <stop
       offset="0"
       stop-opacity=".588235"
       id="stop7" />
    <stop
       offset=".88"
       stop-opacity="0"
       id="stop9" />
    <stop
       offset="1"
       id="stop11" />
  </linearGradient>
  <filter
     id="c"
     color-interpolation-filters="sRGB"
     height="1.087725"
     width="1.105998"
     x="-.052999"
     y="-.043863">
    <feGaussianBlur
       stdDeviation="8.4801079"
       id="feGaussianBlur14" />
  </filter>
  <filter
     id="d"
     color-interpolation-filters="sRGB"
     height="1.021931"
     width="1.0265"
     x="-.01325"
     y="-.010966">
    <feGaussianBlur
       stdDeviation="2.120027"
       id="feGaussianBlur17" />
  </filter>
  <path
     style="color:#000000;display:inline;overflow:visible;visibility:visible;opacity:0.1;fill:#000000;fill-opacity:1;fill-rule:nonzero;stroke:none;stroke-width:2;marker:none;filter:url(#filter4346);enable-background:accumulate"
     d="M 189.84323,74 C 119.24979,74 111.65402,81.250835 112,151.98706 V 298 444.01294 C 111.65402,514.74917 119.24979,522 189.84323,522 H 418.15677 C 488.75021,522 494.0629,514.72348 496,444.01294 V 298 151.98706 C 496,81.249993 488.75021,74 418.15677,74 Z"
     id="rect4158-9"
     inkscape:connector-curvature="0"
     sodipodi:nodetypes="scccssscsss"
     transform="matrix(0,-0.13228516,0.13228516,0,-5.8667865,74.031658)" />
  <path
     sodipodi:nodetypes="scccssscsss"
     inkscape:connector-curvature="0"
     id="path4350"
     d="M 189.84323,74 C 119.24979,74 111.65402,81.250835 112,151.98706 V 298 444.01294 C 111.65402,514.74917 119.24979,522 189.84323,522 H 418.15677 C 488.75021,522 496,514.75001 496,444.01294 V 298 151.98706 C 496,81.249993 488.75021,74 418.15677,74 Z"
     style="color:#000000;display:inline;overflow:visible;visibility:visible;opacity:0.3;fill:url(#linearGradient4358);fill-opacity:1;fill-rule:nonzero;stroke:none;stroke-width:2;marker:none;filter:url(#filter4380);enable-background:accumulate"
     transform="matrix(0,0.13228516,0.13228516,0,-5.8667865,-6.3962895)" />
  <path
     sodipodi:nodetypes="scccssscsss"
     inkscape:connector-curvature="0"
     id="path1163"
     d="m 3.9223151,48.653645 c 0,9.338467 0.9591779,10.343274 10.3165309,10.297506 h 19.315345 19.315345 c 9.357354,0.04577 10.31653,-0.959039 10.31653,-10.297506 V 18.451157 c 0,-9.3384631 -0.962575,-10.5537541 -10.31653,-10.2975041 H 33.554191 14.238846 c -9.3574644,0 -10.3165309,0.959041 -10.3165309,10.2975041 z"
     style="color:#000000;display:inline;overflow:visible;visibility:visible;opacity:0.2;fill:none;fill-opacity:1;fill-rule:nonzero;stroke:#000000;stroke-width:1.0582813;stroke-miterlimit:4;stroke-dasharray:none;stroke-opacity:1;marker:none;enable-background:accumulate" />
  <path
     style="color:#000000;display:inline;overflow:visible;visibility:visible;fill:url(#linearGradient4226);fill-opacity:1;fill-rule:nonzero;stroke:none;stroke-width:0.26457033;marker:none;enable-background:accumulate"
     d="m 3.9223145,48.653645 c 0,9.338467 0.9591785,10.343274 10.3165315,10.297506 h 19.315345 19.315345 c 9.357354,0.04577 10.31653,-0.959039 10.31653,-10.297506 V 18.451157 c 0,-9.3384631 -0.959067,-10.2975041 -10.31653,-10.2975041 H 33.554191 14.238846 c -9.3574641,0 -10.3165315,0.959041 -10.3165315,10.2975041 z"
     id="rect4158"
     inkscape:connector-curvature="0"
     sodipodi:nodetypes="scccssscsss" />
  <path
     style="color:#000000;display:inline;overflow:visible;visibility:visible;opacity:0.2;fill:#000000;fill-opacity:1;fill-rule:nonzero;stroke:none;stroke-width:0.26457033;marker:none;enable-background:accumulate"
     d="m 3.9225122,48.126185 v 0.52914 c 0,9.338465 0.9587112,10.297056 10.3161758,10.297056 H 33.55439 52.869573 c 9.357463,0 10.316692,-0.958591 10.316692,-10.297056 v -0.52914 c 0,9.338464 -0.959229,10.297055 -10.316692,10.297055 H 33.55439 14.238688 c -9.3574646,0 -10.3161758,-0.958591 -10.3161758,-10.297055 z"
     id="path1056"
     inkscape:connector-curvature="0"
     sodipodi:nodetypes="csscsscscsc" />
  <path
     style="color:#000000;display:inline;overflow:visible;visibility:visible;opacity:0.2;fill:#ffffff;fill-opacity:1;fill-rule:nonzero;stroke:none;stroke-width:0.26457033;marker:none;enable-background:accumulate"
     d="M 14.238688,8.1548829 C 4.8813327,8.1091149 3.9225122,9.1139879 3.9225122,18.452456 v 0.529141 c 0,-9.3384681 0.9588205,-10.3433421 10.3161758,-10.2975741 H 33.55439 52.869573 c 9.357352,-0.04577 10.316692,0.959106 10.316692,10.2975741 v -0.529141 c 0,-9.3384681 -0.95934,-10.3433411 -10.316692,-10.2975731 H 33.55439 Z"
     id="path923"
     inkscape:connector-curvature="0" />
  <path
     sodipodi:nodetypes="ssccsscs"
     inkscape:connector-curvature="0"
     id="path969"
     d="m 35.788419,29.947145 c 0,2.44635 -3.914162,4.892702 -3.914162,7.828324 0,3.424892 3.914162,4.892704 16.145919,4.892704 v 1.95708 c -12.231757,0 -17.124456,-2.44635 -17.124456,-6.849784 0,-3.424892 3.914159,-5.871242 3.914159,-7.828324 0,-1.46781 -1.467812,-9.785406 -16.145924,-9.785406 14.678112,0 17.124464,7.339056 17.124464,9.785406 z"
     style="display:inline;fill:#000000;fill-opacity:1;stroke:#000000;stroke-width:0.54697311;stroke-linecap:butt;stroke-linejoin:miter;stroke-miterlimit:4;stroke-dasharray:none;stroke-opacity:1;enable-background:new" />
  <path
     sodipodi:nodetypes="sssss"
     inkscape:connector-curvature="0"
     id="path971"
     d="m 53.237876,43.646713 c 0,2.881652 -2.33604,5.217702 -5.2177,5.217702 -2.881655,0 -5.217699,-2.33605 -5.217699,-5.217702 0,-2.881655 2.336044,-5.2177 5.217699,-5.2177 2.88166,0 5.2177,2.336045 5.2177,5.2177 z"
     style="display:inline;fill:#ffffff;fill-opacity:1;stroke:#1c399e;stroke-width:0.75799394;stroke-miterlimit:4;stroke-dasharray:none;stroke-opacity:1;enable-background:new" />
  <path
     sodipodi:nodetypes="sssss"
     inkscape:connector-curvature="0"
     id="path974"
     d="m 34.284085,37.7344 c 0,1.572304 -1.297971,2.846912 -2.899101,2.846912 -1.601126,0 -2.899095,-1.274608 -2.899095,-2.846912 0,-1.57231 1.297969,-2.846917 2.899095,-2.846917 1.60113,0 2.899101,1.274607 2.899101,2.846917 z"
     style="display:inline;fill:#ffffff;fill-opacity:1;stroke:#1c399e;stroke-width:0.57910508;stroke-miterlimit:4;stroke-dasharray:none;stroke-opacity:1;enable-background:new" />
  <path
     sodipodi:nodetypes="sssss"
     inkscape:connector-curvature="0"
     id="path976"
     d="m 37.553015,28.16642 c 0,1.517964 -1.230551,2.748515 -2.748512,2.748515 -1.517964,0 -2.748515,-1.230551 -2.748515,-2.748515 0,-1.517965 1.230551,-2.748513 2.748515,-2.748513 1.517961,0 2.748512,1.230548 2.748512,2.748513 z"
     style="display:inline;fill:#ffffff;fill-opacity:1;stroke:#1c399e;stroke-width:0.68712854;stroke-miterlimit:4;stroke-dasharray:none;stroke-opacity:1;enable-background:new" />
  <ellipse
     id="ellipse978"
     style="display:inline;fill:#ffffff;fill-opacity:1;stroke:#1c399e;stroke-width:0.66142577;stroke-miterlimit:4;stroke-dasharray:none;stroke-opacity:1;enable-background:new"
     cx="19.36125"
     cy="20.261984"
     rx="2.4099836"
     ry="2.4051092" />
  <path
     style="color:#000000;display:inline;overflow:visible;visibility:visible;opacity:0.1;fill:#ffffff;fill-opacity:1;fill-rule:nonzero;stroke:none;stroke-width:0.26457033;marker:none;enable-background:accumulate"
     d="M 3.9223145,33.553829 H 63.186066 v 15.101176 c 0,9.338465 -0.962123,10.054627 -10.316435,10.297574 H 33.554191 14.238749 c -9.3574647,0 -10.3164345,-0.959109 -10.3164345,-10.297574 z"
     id="path4231"
     inkscape:connector-curvature="0"
     sodipodi:nodetypes="ccsscssc" />
  <path
     inkscape:connector-curvature="0"
     style="color:#000000;display:inline;overflow:visible;visibility:visible;opacity:0.1;fill:#ffffff;fill-opacity:1;fill-rule:nonzero;stroke:none;stroke-width:0.26457033;marker:none;enable-background:accumulate"
     d="m 33.554191,8.1550799 h 19.31544 c 9.357355,-0.04577 10.316435,0.959109 10.316435,10.2975751 v 30.20235 c 0,9.338465 -0.962123,10.054627 -10.316435,10.297574 h -19.31544 z"
     id="path4255"
     sodipodi:nodetypes="ccssscc" />
  <path
     style="color:#000000;display:inline;overflow:visible;visibility:visible;opacity:0.1;fill:#ffffff;fill-opacity:1;fill-rule:nonzero;stroke:none;stroke-width:2.11656237;stroke-linecap:butt;stroke-linejoin:miter;stroke-miterlimit:4;stroke-dasharray:none;stroke-dashoffset:0;stroke-opacity:1;marker:none;enable-background:accumulate"
     d="M 47.311847,58.580657 63.186066,42.706438 v 5.948567 c -0.01384,8.994282 -1.006076,9.925652 -10.099733,9.925652 z"
     id="path4254"
     inkscape:connector-curvature="0"
     sodipodi:nodetypes="cccsc" />
</svg>
